src/lib/packages/icons/src/assets/line/comment-notification.svg

<svg width="24" height="24" viewBox="0 0 24 24" fill="none" xmlns="http://www.w3.org/2000/svg">
<path d="M3.85693 21.75C3.71193 21.75 3.57111 21.748 3.43311 21.743C2.93311 21.731 2.49497 21.411 2.32397 20.928C2.15197 20.442 2.29408 19.9131 2.68408 19.5811C3.61608 18.8291 3.98892 17.997 4.13892 17.426C2.90192 15.947 2.24902 14.08 2.24902 12.001C2.24902 6.84798 6.25902 3.25 11.999 3.25C12.362 3.25 12.7149 3.26097 13.0669 3.29297C13.4799 3.33097 13.7841 3.69603 13.7461 4.10803C13.7081 4.52103 13.3319 4.82299 12.9309 4.78699C12.6229 4.75899 12.316 4.75 11.999 4.75C7.14202 4.75 3.74902 7.73198 3.74902 12.001C3.74902 13.837 4.354 15.463 5.5 16.703C5.655 16.871 5.72594 17.101 5.68994 17.328C5.52194 18.399 4.99388 19.412 4.18188 20.243C5.34188 20.201 6.90206 19.934 7.86206 18.91C8.06306 18.694 8.37505 18.617 8.65405 18.714C9.68905 19.072 10.814 19.2531 11.999 19.2531C16.856 19.2531 20.249 16.271 20.249 12.002C20.249 11.588 20.585 11.252 20.999 11.252C21.413 11.252 21.749 11.588 21.749 12.002C21.749 17.155 17.739 20.7531 11.999 20.7531C10.812 20.7531 9.67398 20.592 8.60498 20.274C7.24198 21.46 5.36393 21.75 3.85693 21.75ZM3.47803 20.243C3.48003 20.243 3.48189 20.243 3.48389 20.243C3.48089 20.244 3.47903 20.244 3.47803 20.243ZM19 8.75C17.483 8.75 16.25 7.517 16.25 6C16.25 4.483 17.483 3.25 19 3.25C20.517 3.25 21.75 4.483 21.75 6C21.75 7.517 20.517 8.75 19 8.75ZM19 4.75C18.311 4.75 17.75 5.311 17.75 6C17.75 6.689 18.311 7.25 19 7.25C19.689 7.25 20.25 6.689 20.25 6C20.25 5.311 19.689 4.75 19 4.75Z" fill="currentColor"/>
</svg>

<svg xmlns="http://www.w3.org/2000/svg" width="24" height="24" fill="none"><path fill="currentColor" d="M3.857 21.75c-.145 0-.286-.002-.424-.007a1.207 1.207 0 0 1-1.109-.815 1.221 1.221 0 0 1 .36-1.347c.932-.752 1.305-1.584 1.455-2.155-1.237-1.479-1.89-3.346-1.89-5.425 0-5.153 4.01-8.751 9.75-8.751.363 0 .716.011 1.068.043a.75.75 0 0 1 .68.815.758.758 0 0 1-.816.679 10.237 10.237 0 0 0-.932-.037c-4.857 0-8.25 2.982-8.25 7.251 0 1.836.605 3.462 1.751 4.702a.749.749 0 0 1 .19.625c-.168 1.071-.696 2.084-1.508 2.915 1.16-.042 2.72-.309 3.68-1.333a.748.748 0 0 1 .792-.196c1.035.358 2.16.54 3.345.54 4.857 0 8.25-2.983 8.25-7.252a.75.75 0 0 1 1.5 0c0 5.153-4.01 8.751-9.75 8.751-1.187 0-2.325-.161-3.394-.479-1.363 1.186-3.241 1.476-4.748 1.476Zm-.379-1.507h.006-.006ZM19 8.75A2.752 2.752 0 0 1 16.25 6 2.752 2.752 0 0 1 19 3.25 2.752 2.752 0 0 1 21.75 6 2.752 2.752 0 0 1 19 8.75Zm0-4c-.689 0-1.25.561-1.25 1.25s.561 1.25 1.25 1.25 1.25-.561 1.25-1.25-.561-1.25-1.25-1.25Z"/></svg>
